X: 10701
T: CALEDONIAN QUADRILLES #1
C: Arranged by W.B. Laybourn
R: reel
B: K\"ohler's Violin Repository, v.1, 1885 p.70 #1
F: http://www.archive.org/details/klersviolinrepos01edin
Z: 2012 John Chambers <jc:trillian.mit.edu>
N: This is the tune to "My Love Is But a Lassie Yet", by Robert Burns, with a third part.
M: 2/4
L: 1/16
K: D
u(fe) |\
d2D2F2A2 | d2D2D2 (Bc) | d2D2F2A2 | e2E2E2 (fe) |\
d2D2F2A2 | B2g2f2e2 | (dc)(BA) B2c2 | d2D2D2 |]
u(fg) |\
a2f2 g2e2 | f2d2d2 (fg) | a2(fa) gfga | b2e2e2 (fg) |\
a2f2 g2e2 | f2d2 e2c2 | (dc)(BA) B2c2 | d2D2D2 "^D.C."|]
uF2 |\
f4 b4 | d'2d'2 d'c'ba | gfed c2f2 | edcd B2F2 |\
f4 b4 | e4 g4 | gfed cBcd | B2d2B2 "_D.C." |]

%%sep 2 1 500

